X: 618
T: Greasy Coat
B: jims roots
M:2/4
L:1/4
Q: 1/4=100
K:Ador
V:1 
%R:reel
A/B/ |:"Am"cA/(D/ "G"G) A/G/ | "Am"E< [AA] [AA]>B | cA/(D/ "G"G)A/G/ | "Am"E/G/A/B/ A/G/A/B/ | cA/(D/ "G"G/)G/A/B/ |
"Am"cA/(D/ "G"G)A/B/ | "Am(C)"c/A/d/A/ "Em"e/A/d/A/ | "Am"c< [A2/A2/] [A2A2]|| [e2e2] [ee]>d | "Am"cA/(D/ "G"G)A/G/ | "Am"E/ [A2/3A2/3] [A2A2] ||
|:A/B/c/d/ e/e/f/e/ | "G"[A/f/][A3/g3/][A/g/]A/c/B/ | "Am"A/B/c/d/ e/f/g/e/ | "D"[A/g/][Aa][A/a/] [Aa]c/B/ |
"Am"A/B/c/A/ ef/e/ | "G"ga/g/ e/A/d/A/ | "Am"cA/D/ "G"GA/G/ | "Am"E/[A3/A3/] [A2A2]:|
% abcbook-tune_id 6298c25dc5ce12e847216c75


% abcbook-boost 0
% abcbook-tablature 
% abcbook-transpose 
% abcbook-lastupdated 1654178398418
% abcbook-soundfonts 
% abcbook-repeats 1


